X:1
T: Lord Arthur's Cairn
C:Alexander Walker
R:Reel
Q: 232
K:G
M:4/4
L:1/8
|:B|GG, G,2 DB, B,G,|DG, B,G, EA, CF|GG, G,2 DG, B,B|cA dc BG GB|
GG, G,2 DB, B,G,|DG, B,G, EA, CF|GG, G,2 DG, B,B|cA dc BG Gf|
gd d2 BG dG|ec dB cA Af|gd d2 BG dG|FE DC B,G, G,f|
gd d2 BG dG|ec dB cA Ac|Bd ce dg ba|ge dc BG G:|
